!!!COM: Palestrina, Giovanni Perluigi da
!!!OPR: Missa O sacrum convivium
!!!OTL: Kyrie II
**kern	**kern	**kern	**kern	**kern
*Ibass	*Itenor	*Itenor	*Icalto	*Icant
!Bassus	!Tenor 2	!Tenor 1	!Altus	!Cantus
*clefF4	*clefGv2	*clefGv2	*clefG2	*clefG2
*k[b-]	*k[b-]	*k[b-]	*k[b-]	*k[b-]
*F:ion	*F:ion	*F:ion	*F:ion	*F:ion
*M4/2	*M4/2	*M4/2	*M4/2	*M4/2
=1	=1	=1	=1	=1
1F	0r	1c	0r	0r
[1B-	.	2.d	.	.
.	.	4c	.	.
=2	=2	=2	=2	=2
1B-]	1r	4d	0r	0r
.	.	4e	.	.
.	.	1f	.	.
1A	1c	.	.	.
.	.	2e	.	.
=3	=3	=3	=3	=3
1.B-	2.d	2d	1f	0r
.	.	2B-	.	.
.	4c	.	.	.
.	4d	1f	[1b-	.
.	4e	.	.	.
2A	[2f	.	.	.
=4	=4	=4	=4	=4
1G	2f]	1g	1b-]	1r
.	2e	.	.	.
1F	2.f	1c	1a	1cc
.	4e	.	.	.
=5	=5	=5	=5	=5
0r	4d	0r	1.b-	2.dd
.	4c	.	.	.
.	4B-	.	.	.
.	4A	.	.	4cc
.	2G	.	.	4dd
.	.	.	.	4ee
.	2F	.	2a	[2ff
=6	=6	=6	=6	=6
1C	1c	1r	1g	2ff]
.	.	.	.	2ee
2.D	1F	2r	[1f	2.ff
.	.	2A	.	.
4C	.	.	.	4ee
=7	=7	=7	=7	=7
4D	2r	2B-	1f]	2dd
4E	.	.	.	.
1F	2c	2A	.	2cc
.	2d	1G	1r	2r
2E	[2c	.	.	2g
=8	=8	=8	=8	=8
1.F	4c]	4F	1c	2.a
.	4B-	4G	.	.
.	1A	4A	.	.
.	.	4B-	.	4g
.	.	1c	[1f	4a
.	.	.	.	4b-
2E	2G	.	.	[2cc
=9	=9	=9	=9	=9
1D	1F	1r	1f]	2cc]
.	.	.	.	2b
1C	1G	2r	1e	1cc
.	.	2c	.	.
=10	=10	=10	=10	=10
0r	0r	4d	1.f	2.a
.	.	4c	.	.
.	.	4d	.	.
.	.	4e	.	4g
.	.	2f	.	4a
.	.	.	.	4b-
.	.	[2g	2e	2cc
=11	=11	=11	=11	=11
1r	0r	4g]	1d	4b-
.	.	4f	.	4a
.	.	1f	.	4a
.	.	.	.	8g
.	.	.	.	8f
1C	.	.	2c	1g
.	.	2e	2g	.
=12	=12	=12	=12	=12
0F	0r	1.f	2.a	4f
.	.	.	.	4g
.	.	.	.	4a
.	.	.	4g	4b-
.	.	.	4a	1cc
.	.	.	4b-	.
.	.	2c	[2cc	.
=13	=13	=13	=13	=13
1E	1G	[0c	2cc]	1r
.	.	.	2b-	.
[1F	2.A	.	[1a	1cc
.	4G	.	.	.
=14	=14	=14	=14	=14
2F]	4A	1c]	2a]	0ff
.	4B-	.	.	.
2E	1c	.	2g	.
1D	.	1r	1f	.
.	2B	.	.	.
=15	=15	=15	=15	=15
1C	1c	2r	2r	1ee
.	.	2c	2cc	.
1r	1r	4d	2a	[1ff
.	.	4c	.	.
.	.	4d	4f	.
.	.	4e	4g	.
=16	=16	=16	=16	=16
0r	2r	2f	4a	2ff]
.	.	.	4b-	.
.	2c	1g	2cc	2ee
.	4d	.	2b-	1dd
.	4c	.	.	.
.	4d	[2f	[2a	.
.	4e	.	.	.
=17	=17	=17	=17	=17
0r	2f	2f]	2a]	[0cc
.	2.g	2e	2g	.
.	.	1f	1a	.
.	4f	.	.	.
.	[2f	.	.	.
=18	=18	=18	=18	=18
1C	2f]	1r	1g	1cc]
.	2e	.	.	.
2F	2a	1c	1r	2r
2E	2g	.	.	2g
=19	=19	=19	=19	=19
2.D	4f	0f	2r	2.a
.	4e	.	.	.
.	2d	.	1a	.
4E	.	.	.	4g
4F	1c	.	.	4a
4G	.	.	.	4b-
2A	.	.	2f	[2cc
=20	=20	=20	=20	=20
1G	2r	1e	2g	2cc]
.	2G	.	2g	2b-
[1F	2.A	[1f	2c	[1a
.	.	.	2c	.
.	4G	.	.	.
=21	=21	=21	=21	=21
1F]	4A	2f]	1c	2a]
.	4B-	.	.	.
.	1c	2e	.	2a
1G	.	1d	2r	[1g
.	2B	.	2g	.
=22	=22	=22	=22	=22
1C	1c	2c	4e	1g]
.	.	.	4f	.
.	.	2e	4g	.
.	.	.	4e	.
1r	1F	2f	2a	1cc
.	.	2f	2a	.
=23	=23	=23	=23	=23
0BB-	0B-	2f	2.d	2.dd
.	.	2f	.	.
.	.	.	4e	4cc
.	.	1d	2.f	4dd
.	.	.	.	4ee
.	.	.	.	[2ff
.	.	.	4g	.
=24	=24	=24	=24	=24
1F	1A	2r	1a	2ff]
.	.	2c	.	2ee
1BB-	[1B-	2.d	2.f	[1dd
.	.	4c	4e	.
=25	=25	=25	=25	=25
1BB-	2B-]	4d	1d	1dd]
.	.	4e	.	.
.	2A	1f	.	.
1C	1G	.	2r	1cc
.	.	2e	2g	.
=26	=26	=26	=26	=26
1F	1F	1f	2.a	1.cc
.	.	.	4g	.
1F	1c	2.f	4a	.
.	.	.	4b-	.
.	.	.	[2cc	2a
.	.	4e	.	.
=27	=27	=27	=27	=27
1BB-	1f	1d	2cc]	1b-
.	.	.	1b-	.
1F	2f	1c	.	1cc
.	2f	.	2a	.
=28	=28	=28	=28	=28
1BB-	1d	4B-	1.b-	1.dd
.	.	4c	.	.
.	.	4d	.	.
.	.	4e	.	.
2BB-	1B-	2f	.	.
2BB-	.	2f	2b-	2dd
=29	=29	=29	=29	=29
0F	0c	0f	0a	0cc
==	==	==	==	==
*-	*-	*-	*-	*-
!!!CDT: 1525/^1526/-1594/2/2
!!!OCY: Italia
!!!AGN: Mass (Parody)
!!!AST: renaissance, vocal
!!!ASW: Motet (Morales)
!!!PWK: Masses, Book 8
!!!RNB: Cadence finals: C
!!!YOR: Le Opere Complete, v. 24, p. 227
!!!YOO: Rome, Italy: Fratelli Scalera
!!!END: 1992//
!!!EED: John Miller
!!!YEC: Copyright 2000, John Miller
!!!YEN: United States of America
!!!YEM: Rights to all derivative electronic formats reserved.
!!!YEM: Refer to licensing agreement for further details.
!!!YEM: This file must be accompanied by the licensing agreement.
!!!YEM: A copy of the licensing agreement may be found at http://www.music-cog.ohio-state.edu/HumdrumDatabases/Palestrina/license.txt
!!!EMD: converted to Humdrum by Bret Aarden
